T: Evan's
M: 6/8
L: 1/8
K: Amin
e|:a>ba ^d^fg|a3 f>gf|e>fe d>cd|1e>de A2:|2e3-e2||
e|g>ag geg|f>gf fdf|e>fe d>ec|B>AG G2d|
g>ag f>gf|e>fe d>ec|B>cA A>B^G|A3-A2:|
